X:190
T:Reel 190
M:4/4
K:Amaj
L:1/8
 (3EFG |A2ED CA,CE| (3AGF E>C  (3FGA EC|D2FD C2EA,| (3B,CB, EA G2 (3EFG |A2CD ECA,C|FdBG AGFG|AFGE FDEC|DCB,C B,2|ED|CDEC A,B,CE|ABAF E2EC|A,B,CD EFEC| (3DCB, CD E2FE|CDFG AGFE|AGFG A2EC|D2DE F2EC|B,CDE F2|
